;Generated with Cura_SteamEngine 15.01
; Default start code
G28 ; Home extruder
G1 Z15 F100
M107 ; Turn off fan
G90 ; Absolute positioning
M82 ; Extruder in absolute mode
M190 S50
; Activate all used extruder
M104 T0 S210
G92 E0 ; Reset extruder position
; Wait for all used extruders to reach temperature
M109 T0 S210
;Layer count: 500
;LAYER:0
M107
G0 F9000 X91.085 Y121.800 Z1.300
;TYPE:SKIRT

;LAYER:369
G1 F2400 E85.04155
G0 F9000 X185.605 Y150.859 Z1.100
;TYPE:WALL-INNER
G1 F2400 E89.04155
G1 F3600 X183.035 Y153.189 E89.15693
G1 X182.074 Y154.076 E89.20042
G1 X181.847 Y155.714 E89.25542
G1 X183.614 Y162.141 E89.47712
G1 X177.759 Y164.834 E89.69147
G1 X174.983 Y161.351 E89.83961
G1 X174.504 Y156.798 E89.99188
G1 X165.728 Y158.321 E90.28813
G1 X158.559 Y154.569 E90.55725
G1 X158.515 Y154.045 E90.57474
G1 X157.987 Y151.998 E90.64505
G1 X160.143 Y140.309 E91.04039
G1 X165.759 Y134.191 E91.31661
G1 X168.554 Y132.687 E91.42217
G1 X172.879 Y131.495 E91.57139
G1 X179.812 Y132.062 E91.80275
G1 X183.566 Y135.939 E91.98224
G1 X189.946 Y138.328 E92.20883
G1 X194.420 Y139.296 E92.36108
G1 X195.112 Y142.196 E92.46024
G1 X192.135 Y144.395 E92.58334
G1 X185.605 Y150.859 E92.88894
G0 F9000 X185.867 Y151.162
;TYPE:WALL-OUTER
G1 F2700 X183.305 Y153.484 E93.00395
G1 X182.451 Y154.273 E93.04262
G1 X182.254 Y155.687 E93.09010
G1 X184.090 Y162.362 E93.32036
G1 X177.838 Y165.237 E93.54923
G1 X177.629 Y165.312 E93.55662
G1 X174.597 Y161.508 E93.71841
G1 X174.151 Y157.265 E93.86031
G1 X165.663 Y158.738 E94.14685
G1 X158.178 Y154.822 E94.42781
G1 X158.119 Y154.112 E94.45151
G1 X157.578 Y152.013 E94.52360
G1 X159.771 Y140.122 E94.92577
G1 X165.507 Y133.873 E95.20789
G1 X168.403 Y132.314 E95.31729
G1 X172.844 Y131.090 E95.47050
G1 X179.994 Y131.675 E95.70911
G1 X183.791 Y135.596 E95.89065
G1 X190.059 Y137.943 E96.11326
G1 X194.750 Y138.958 E96.27289
G1 X195.562 Y142.361 E96.38925
G1 X192.396 Y144.700 E96.52017
G1 X185.867 Y151.162 E96.82571
G0 F9000 X185.665 Y150.940
G0 X186.522 Y149.752
;TYPE:FILL
G1 F4800 X169.375 Y132.605 E97.63225
G0 F9000 X170.288 Y132.353
G1 F4800 X159.822 Y142.819 E98.12454
G0 F9000 X159.376 Y145.234
G1 F4800 X171.345 Y157.203 E98.68752
G0 F9000 X174.221 Y156.704
G1 F4800 X192.009 Y138.916 E99.52421
G0 F9000 X192.835 Y139.095
G1 F4800 X194.662 Y140.922 E99.61015
G0 F9000 X194.854 Y141.728
G1 F4800 X193.002 Y143.580 E99.69726
G0 F9000 X192.231 Y144.148
G1 F4800 X184.534 Y136.451 E100.05931
G0 F9000 X183.535 Y136.076
G1 F4800 X162.918 Y156.693 E101.02907
G0 F9000 X166.525 Y158.039
G1 F4800 X158.495 Y150.010 E101.40675
G0 F9000 X158.543 Y149.755
G1 F4800 X176.377 Y131.920 E102.24563
G0 F9000 X174.166 Y131.740
G1 F4800 X189.365 Y146.938 E102.96052
G0 F9000 X183.603 Y152.491
G1 F4800 X165.639 Y134.526 E103.80552
G0 F9000 X162.931 Y137.475
G1 F4800 X181.902 Y156.446 E104.69785
G0 F9000 X181.838 Y154.743
G1 F4800 X175.192 Y161.390 E105.01048
G0 F9000 X175.078 Y160.936
G1 F4800 X178.486 Y164.344 E105.17079
G0 F9000 X177.700 Y164.538
G1 F4800 X182.741 Y159.498 E105.40788
G0 F9000 X182.360 Y162.561
G1 F4800 X160.257 Y140.458 E106.44753
G0 F9000 X167.376 Y157.892
G1 F4800 X187.651 Y137.617 E107.40121
G0 F9000 X183.569 Y135.935
G0 X180.735 Y133.219
G1 F4800 X159.205 Y154.750 E108.41394
G0 F9000 X158.162 Y152.115
;TYPE:SKIN
G1 F2700 X158.305 Y151.689 E108.42451
G1 X158.433 Y150.996 E108.43822
G1 X158.561 Y150.302 E108.45189
G1 X158.688 Y149.608 E108.46556
G1 X158.816 Y148.915 E108.47927
G1 X158.945 Y148.221 E108.49307
G1 X159.073 Y147.527 E108.50686
G1 X159.201 Y146.834 E108.52063
G1 X159.329 Y146.140 E108.53442
G1 X159.457 Y145.446 E108.54821
G1 X159.585 Y144.753 E108.56198
G1 X159.713 Y144.059 E108.57577
G1 X159.841 Y143.365 E108.58956
G1 X159.969 Y142.672 E108.60333
G1 X160.097 Y141.978 E108.61712
G1 X160.225 Y141.284 E108.63091
G1 X160.436 Y140.791 E108.64874
G0 F9000 X160.270 Y140.391
G1 F2700 X162.742 Y137.919 E108.76502
G0 F9000 X166.302 Y134.359
G1 F2700 X166.956 Y133.705 E108.79578
G0 F9000 X167.528 Y133.699
G1 F2700 X168.182 Y133.044 E108.82657
G0 F9000 X168.753 Y133.039
G1 F2700 X169.371 Y132.703 E108.84359
G1 X170.152 Y132.488 E108.85625
G1 X170.933 Y132.273 E108.86898
G1 X171.714 Y132.058 E108.88164
G1 X172.495 Y131.842 E108.89438
G1 X172.979 Y131.642 E108.91180
G0 F9000 X179.561 Y132.414
G1 F2700 X179.900 Y132.357 E108.92117
G1 X179.978 Y132.845 E108.93058
G1 X180.456 Y132.932 E108.94000
G1 X180.534 Y133.419 E108.94939
G1 X181.014 Y133.506 E108.95880
G1 X181.091 Y133.994 E108.96820
G1 X181.570 Y134.081 E108.97760
G1 X181.647 Y134.569 E108.98700
G1 X182.127 Y134.656 E108.99645
G1 X182.204 Y135.144 E109.00586
G1 X182.684 Y135.230 E109.01531
G1 X182.760 Y135.719 E109.02477
G1 X183.240 Y135.805 E109.03422
G1 X183.317 Y136.294 E109.04365
G1 X183.947 Y136.230 E109.05702
G1 X184.020 Y136.722 E109.07290
G1 X184.770 Y136.538 E109.08876
G1 X184.843 Y137.030 E109.10464
G1 X185.593 Y136.847 E109.12050
G1 X185.666 Y137.339 E109.13638
G1 X186.416 Y137.155 E109.15224
G1 X186.490 Y137.646 E109.16814
G1 X187.239 Y137.463 E109.18391
G1 X187.313 Y137.955 E109.19975
G1 X188.062 Y137.771 E109.21559
G1 X188.136 Y138.263 E109.23144
G1 X188.885 Y138.080 E109.24727
G1 X188.959 Y138.571 E109.26309
G1 X189.709 Y138.387 E109.27895
G1 X189.833 Y138.828 E109.29373
G1 X190.456 Y138.771 E109.30855
G1 X190.921 Y138.872 E109.32335
G1 X191.386 Y138.973 E109.33815
G1 X191.851 Y139.073 E109.35298
G1 X192.316 Y139.174 E109.36782
G1 X192.781 Y139.275 E109.38265
G1 X193.246 Y139.375 E109.39748
G1 X193.711 Y139.476 E109.41232
G1 X194.232 Y139.521 E109.42715
G1 X194.251 Y139.785 E109.43595
G0 F9000 X174.770 Y156.438
G1 F2700 X174.775 Y156.715 E109.44565
G1 X174.858 Y157.197 E109.46025
G1 X174.912 Y157.709 E109.47485
G1 X174.966 Y158.221 E109.48945
G1 X175.020 Y158.733 E109.50404
G1 X175.074 Y159.245 E109.51873
G1 X175.127 Y159.757 E109.53341
G1 X175.181 Y160.269 E109.54805
G1 X175.235 Y160.781 E109.56273
G1 X175.211 Y161.370 E109.57739
G1 X175.600 Y161.547 E109.58475
G1 X175.693 Y162.019 E109.59215
G1 X176.101 Y162.177 E109.59953
G1 X176.195 Y162.649 E109.60689
G1 X176.604 Y162.806 E109.61429
G1 X176.697 Y163.278 E109.62165
G1 X177.105 Y163.436 E109.62903
G1 X177.198 Y163.908 E109.63639
G1 X177.607 Y164.065 E109.64379
G1 X177.744 Y164.494 E109.65120
G1 X177.984 Y164.538 E109.65932
G0 F9000 X174.447 Y156.873
G0 X173.878 Y156.764
G1 F2700 X173.743 Y156.615 E109.66910
G1 X172.955 Y156.838 E109.67877
G1 X172.271 Y156.957 E109.68847
G1 X171.586 Y157.076 E109.69818
G1 X170.902 Y157.195 E109.70788
G1 X170.217 Y157.314 E109.71759
G1 X169.533 Y157.432 E109.72723
G1 X168.848 Y157.551 E109.73694
G1 X168.164 Y157.670 E109.74658
G1 X167.479 Y157.789 E109.75629
G1 X166.795 Y157.908 E109.76599
G1 X166.110 Y158.026 E109.77570
G1 X165.704 Y158.150 E109.78982
G1 F2400 E105.78982
G0 F9000 X196.250 Y154.467
;TYPE:WALL-INNER
G1 F2400 E109.78982
G1 F3600 X199.511 Y154.377 E109.89832
G1 X200.818 Y153.894 E109.94467
G1 X200.552 Y154.226 E109.95882
G1 X197.317 Y157.632 E110.11506
G1 X196.250 Y154.467 E110.22615
G0 F9000 X195.703 Y154.098
;TYPE:WALL-OUTER
G1 F2700 X195.705 Y154.082 E110.22668
G1 X199.434 Y153.979 E110.35076
G1 X201.221 Y153.318 E110.41413
G1 X201.553 Y153.616 E110.42897
G1 X200.861 Y154.481 E110.46581
G1 X197.481 Y158.039 E110.62903
G1 X197.063 Y158.130 E110.64326
G1 X195.703 Y154.098 E110.78479
G0 F9000 X197.012 Y154.586
;TYPE:FILL
G1 F4800 X198.553 Y156.127 E110.85728
G0 F9000 X197.076 Y156.477
G1 F4800 X199.023 Y154.529 E110.94888
;LAYER:370
G1 F2400 E106.94888
G0 F9000 X192.368 Y144.209 Z1.300
;TYPE:WALL-INNER
G1 F2400 E110.94888
G1 F3600 X186.244 Y150.271 E111.23548
G1 X183.200 Y153.031 E111.37214
G1 X182.092 Y154.054 E111.42230
G1 X181.831 Y155.933 E111.48540
G1 X183.540 Y162.148 E111.69978
G1 X177.650 Y164.858 E111.91542
G1 X174.839 Y161.332 E112.06541
G1 X174.374 Y156.905 E112.21346
G1 X165.854 Y158.383 E112.50107
G1 X158.596 Y154.584 E112.77354
G1 X158.556 Y154.108 E112.78943
G1 X158.060 Y152.183 E112.85554
G1 X160.250 Y140.310 E113.25710
G1 X165.736 Y134.334 E113.52692
G1 X168.698 Y132.740 E113.63879
G1 X173.281 Y131.477 E113.79691
G1 X179.942 Y132.022 E114.01919
G1 X183.554 Y135.753 E114.19191
G1 X190.124 Y138.212 E114.42524
G1 X194.421 Y139.142 E114.57146
G1 X195.142 Y142.160 E114.67467
G1 X192.368 Y144.209 E114.78937
G0 F9000 X192.629 Y144.514
;TYPE:WALL-OUTER
G1 F2700 X186.506 Y150.574 E115.07590
G1 X183.470 Y153.326 E115.21219
G1 X182.469 Y154.251 E115.25752
G1 X182.238 Y155.906 E115.31310
G1 X184.016 Y162.369 E115.53605
G1 X177.642 Y165.301 E115.76940
G1 X177.525 Y165.343 E115.77353
G1 X174.453 Y161.489 E115.93746
G1 X174.021 Y157.372 E116.07514
G1 X165.789 Y158.800 E116.35303
G1 X158.216 Y154.837 E116.63731
G1 X158.160 Y154.175 E116.65941
G1 X157.651 Y152.198 E116.72731
G1 X159.878 Y140.123 E117.13570
G1 X165.484 Y134.016 E117.41142
G1 X168.547 Y132.367 E117.52712
G1 X173.246 Y131.072 E117.68924
G1 X180.124 Y131.635 E117.91877
G1 X183.779 Y135.410 E118.09353
G1 X190.237 Y137.827 E118.32288
G1 X194.751 Y138.804 E118.47649
G1 X195.592 Y142.325 E118.59689
G1 X192.629 Y144.514 E118.71942
G0 F9000 X192.230 Y144.147
;TYPE:FILL
G1 F4800 X184.245 Y136.162 E119.09501
G0 F9000 X183.666 Y135.945
G1 F4800 X162.921 Y156.690 E120.07079
G0 F9000 X166.597 Y158.111
G1 F4800 X158.586 Y150.101 E120.44758
G0 F9000 X158.674 Y149.623
G1 F4800 X176.424 Y131.874 E121.28246
G0 F9000 X174.111 Y131.685
G1 F4800 X189.387 Y146.961 E122.00100
G0 F9000 X186.544 Y149.775
G1 F4800 X169.448 Y132.678 E122.80516
G0 F9000 X170.159 Y132.482
G1 F4800 X159.953 Y142.687 E123.28520
G0 F9000 X159.466 Y145.324
G1 F4800 X171.417 Y157.275 E123.84734
G0 F9000 X174.119 Y156.806
G1 F4800 X192.136 Y138.789 E124.69480
G0 F9000 X192.639 Y138.899
G1 F4800 X194.713 Y140.973 E124.79236
G0 F9000 X194.885 Y141.697
G1 F4800 X193.056 Y143.526 E124.87839
G0 F9000 X183.600 Y152.488
G1 F4800 X165.695 Y134.582 E125.72061
G0 F9000 X162.988 Y137.532
G1 F4800 X181.798 Y156.342 E126.60537
G0 F9000 X181.855 Y154.726
G1 F4800 X175.121 Y161.461 E126.92214
G0 F9000 X174.921 Y160.779
G1 F4800 X178.468 Y164.325 E127.08896
G0 F9000 X177.629 Y164.610
G1 F4800 X182.681 Y159.557 E127.32661
G0 F9000 X182.342 Y162.543
G1 F4800 X160.347 Y140.548 E128.36119
G0 F9000 X167.274 Y157.994
G1 F4800 X187.783 Y137.485 E129.32587
G0 F9000 X183.557 Y135.748
G0 X180.821 Y133.134
G1 F4800 X159.207 Y154.747 E130.34250
G0 F9000 X158.391 Y152.452
;TYPE:SKIN
G1 F2700 X158.356 Y152.133 E130.34998
G1 X158.423 Y151.634 E130.35944
G1 X158.511 Y151.157 E130.36892
G1 X158.599 Y150.679 E130.37837
G1 X158.687 Y150.202 E130.38785
G1 X158.775 Y149.724 E130.39731
G1 X158.863 Y149.246 E130.40680
G1 X158.951 Y148.768 E130.41634
G1 X159.039 Y148.291 E130.42582
G1 X159.127 Y147.813 E130.43536
G1 X159.215 Y147.336 E130.44484
G1 X159.303 Y146.858 E130.45437
G1 X159.391 Y146.380 E130.46391
G1 X159.480 Y145.903 E130.47339
G1 X159.567 Y145.425 E130.48293
G1 X159.656 Y144.948 E130.49241
G1 X159.744 Y144.470 E130.50195
G1 X159.832 Y143.992 E130.51148
G1 X159.920 Y143.515 E130.52096
G1 X160.008 Y143.038 E130.53048
G1 X160.096 Y142.560 E130.54002
G1 X160.184 Y142.083 E130.54954
G1 X160.272 Y141.605 E130.55907
G1 X160.360 Y141.127 E130.56861
G1 X160.449 Y140.650 E130.57813
G1 X160.550 Y140.185 E130.58656
G1 X160.800 Y140.152 E130.59495
G0 F9000 X165.758 Y158.121
G1 F2700 X166.040 Y158.121 E130.60020
G1 X166.524 Y158.039 E130.60698
G1 X167.006 Y157.955 E130.61373
G1 X167.488 Y157.872 E130.62048
G1 X167.971 Y157.788 E130.62725
G1 X168.452 Y157.704 E130.63403
G1 X168.934 Y157.621 E130.64078
G1 X169.417 Y157.537 E130.64755
G1 X169.898 Y157.453 E130.65433
G1 X170.380 Y157.369 E130.66108
G1 X170.863 Y157.286 E130.66784
G1 X171.344 Y157.202 E130.67462
G1 X171.826 Y157.118 E130.68138
G1 X172.309 Y157.035 E130.68814
G1 X172.791 Y156.952 E130.69489
G1 X173.272 Y156.867 E130.70159
G1 X173.755 Y156.784 E130.70836
G1 X174.237 Y156.701 E130.71511
G1 X174.715 Y157.179 E130.73714
G1 X174.781 Y157.811 E130.75527
G1 X174.848 Y158.443 E130.77339
G1 X174.914 Y159.075 E130.79152
G1 X174.981 Y159.707 E130.80964
G1 X175.047 Y160.339 E130.82776
G1 X175.274 Y160.849 E130.84633
G0 F9000 X174.954 Y161.095
G1 F2700 X175.733 Y161.874 E130.88297
G0 F9000 X176.552 Y163.258
G1 F2700 X177.888 Y164.594 E130.94581
G0 F9000 X188.146 Y138.083
G1 F2700 X187.409 Y137.346 E130.98048
G0 F9000 X187.242 Y137.745
G1 F2700 X186.505 Y137.007 E131.01517
G0 F9000 X186.338 Y137.406
G1 F2700 X185.601 Y136.669 E131.04984
G0 F9000 X185.433 Y137.067
G1 F2700 X184.697 Y136.331 E131.08446
G0 F9000 X184.529 Y136.728
G1 F2700 X183.794 Y135.993 E131.11903
G0 F9000 X183.625 Y136.390
G1 F2700 X182.213 Y134.978 E131.18544
G0 F9000 X188.313 Y137.684
G1 F2700 X189.050 Y138.421 E131.22011
G0 F9000 X189.216 Y138.022
G1 F2700 X189.877 Y138.683 E131.25120
G0 F9000 X190.112 Y138.351
G1 F2700 X190.716 Y138.673 E131.27408
G1 X191.438 Y138.830 E131.29700
G1 X192.160 Y138.986 E131.31991
G1 X192.882 Y139.142 E131.34288
G1 X193.605 Y139.299 E131.36589
G1 X194.211 Y139.622 E131.38873
G0 F9000 X173.369 Y131.791
G1 F2700 X173.071 Y131.776 E131.39585
G1 X172.628 Y131.899 E131.40296
G1 X172.185 Y132.021 E131.41006
G1 X171.741 Y132.143 E131.41719
G1 X171.297 Y132.265 E131.42435
G1 X170.854 Y132.387 E131.43145
G1 X170.410 Y132.510 E131.43858
G1 X169.967 Y132.632 E131.44568
G1 X169.524 Y132.754 E131.45279
G1 X169.099 Y132.896 E131.45991
G1 X168.596 Y132.958 E131.46880
G1 X168.420 Y133.348 E131.47801
G1 X167.857 Y133.351 E131.48714
G1 X167.685 Y133.744 E131.49631
G1 X167.122 Y133.747 E131.50544
G1 X166.949 Y134.140 E131.51458
G1 X166.387 Y134.143 E131.52369
G1 X166.214 Y134.536 E131.53283
G1 X165.697 Y134.585 E131.54194
G1 X165.537 Y134.990 E131.54723
G1 X165.153 Y135.172 E131.55253
G1 X164.996 Y135.581 E131.55785
G1 X164.612 Y135.762 E131.56314
G1 X164.455 Y136.171 E131.56850
G1 X164.070 Y136.352 E131.57380
G1 X163.913 Y136.760 E131.57915
G1 X163.528 Y136.941 E131.58449
G1 X163.372 Y137.350 E131.58984
G1 X162.988 Y137.532 E131.59514
G1 X162.830 Y137.940 E131.60041
G1 X162.446 Y138.121 E131.60571
G1 X162.288 Y138.529 E131.61098
G1 X161.904 Y138.711 E131.61628
G1 X161.747 Y139.119 E131.62156
G1 X161.363 Y139.301 E131.62686
G1 X161.206 Y139.709 E131.63213
G1 X160.957 Y139.744 E131.64049
G1 F2400 E127.64049
G0 F9000 X196.375 Y154.514
;TYPE:WALL-INNER
G1 F2400 E131.64049
G1 F3600 X197.966 Y154.470 E131.69343
G1 X200.752 Y153.440 E131.79222
G1 X200.973 Y153.638 E131.80209
G1 X200.017 Y154.835 E131.85304
G1 X197.409 Y157.580 E131.97898
G1 X196.375 Y154.514 E132.08659
G0 F9000 X197.897 Y154.372
G0 X197.889 Y154.072
;TYPE:WALL-OUTER
G1 F2700 X200.839 Y152.981 E132.19121
G1 X201.522 Y153.592 E132.22169
G1 X200.321 Y155.095 E132.28568
G1 X197.491 Y158.075 E132.42236
G1 X197.177 Y158.143 E132.43305
G1 X195.823 Y154.129 E132.57395
G1 X197.889 Y154.072 E132.64269
G0 F9000 X197.060 Y154.634
;TYPE:FILL
G1 F4800 X198.574 Y156.148 E132.71390
G0 F9000 X197.158 Y156.395
G1 F4800 X199.502 Y154.050 E132.82418
G0 F9000 X199.565 Y154.027
;TYPE:SKIN
G1 F2700 X199.920 Y154.099 E132.83819
G1 X200.451 Y154.065 E132.85451
G1 X200.391 Y153.722 E132.86609
G0 F9000 X199.312 Y154.340
G1 F2700 X199.151 Y154.179 E132.87367
;LAYER:371
G1 F2400 E128.87367
G0 F9000 X192.601 Y144.023 Z1.500
;TYPE:WALL-INNER
G1 F2400 E132.87367
G1 F3600 X186.873 Y149.693 E133.14173
G1 X183.366 Y152.872 E133.29917
G1 X182.109 Y154.032 E133.35606
G1 X181.815 Y156.152 E133.42724
G1 X183.466 Y162.156 E133.63435
G1 X177.541 Y164.882 E133.85127
G1 X174.695 Y161.313 E134.00310
G1 X174.243 Y157.012 E134.14694
G1 X165.980 Y158.446 E134.42587
G1 X158.633 Y154.600 E134.70169
