;Generated with Cura_SteamEngine 15.01
; Default start code
G28 ; Home extruder
G1 Z15 F100
M107 ; Turn off fan
G90 ; Absolute positioning
M82 ; Extruder in absolute mode
M190 S50
; Activate all used extruder
M104 T0 S210
G92 E0 ; Reset extruder position
; Wait for all used extruders to reach temperature
M109 T0 S210
;Layer count: 175
;LAYER:0
M107
G0 F9000 X47.213 Y127.213 Z0.300
;TYPE:SKIRT
G1 F1800 X252.788 Y127.212 E10.25618
G1 X252.788 Y172.788 E12.52997
G1 X47.213 Y172.787 E22.78615
G1 X47.213 Y127.213 E25.05985
G1 F2400 E21.05985
G0 F9000 X51.013 Y131.013
;TYPE:WALL-INNER
G1 F2400 E25.05985
G1 F1800 X248.988 Y131.012 E34.93686
G1 X248.988 Y168.988 E36.83149
G1 X51.013 Y168.987 E46.70850
G1 X51.013 Y131.013 E48.60304
G0 F9000 X57.691 Y137.722
G1 F1800 X57.560 Y137.839 E48.61180
G1 X57.213 Y138.341 E48.64224
G1 X57.113 Y138.486 E48.65103
G1 X56.896 Y139.057 E48.68151
G1 X56.835 Y139.222 E48.69028
G1 X56.760 Y139.829 E48.72080
G1 X56.741 Y140.003 E48.72953
G1 X56.813 Y140.609 E48.75998
G1 X56.837 Y140.783 E48.76874
G1 X57.051 Y141.351 E48.79902
G1 X57.115 Y141.515 E48.80780
G1 X57.461 Y142.016 E48.83818
G1 X57.561 Y142.161 E48.84697
G1 X58.016 Y142.566 E48.87736
G1 X58.150 Y142.682 E48.88620
G1 X58.690 Y142.967 E48.91666
G1 X58.846 Y143.047 E48.92541
G1 X59.437 Y143.194 E48.95579
G1 X59.609 Y143.235 E48.96461
G1 X60.218 Y143.236 E48.99500
G1 X60.394 Y143.234 E49.00378
G1 X60.988 Y143.089 E49.03428
G1 X61.158 Y143.045 E49.04304
G1 X61.698 Y142.763 E49.07344
G1 X61.854 Y142.679 E49.08228
G1 X62.308 Y142.277 E49.11253
G1 X62.439 Y142.160 E49.12129
G1 X62.786 Y141.658 E49.15174
G1 X62.886 Y141.513 E49.16053
G1 X63.103 Y140.942 E49.19100
G1 X63.164 Y140.777 E49.19978
G1 X63.259 Y140.001 E49.23878
G1 X63.186 Y139.390 E49.26948
G1 X63.162 Y139.216 E49.27824
G1 X62.948 Y138.648 E49.30853
G1 X62.884 Y138.484 E49.31731
G1 X62.538 Y137.983 E49.34769
G1 X62.438 Y137.838 E49.35647
G1 X61.983 Y137.433 E49.38686
G1 X61.849 Y137.317 E49.39571
G1 X61.309 Y137.032 E49.42617
G1 X61.153 Y136.952 E49.43492
G1 X60.562 Y136.805 E49.46530
G1 X60.390 Y136.764 E49.47412
G1 X59.781 Y136.763 E49.50450
G1 X59.605 Y136.765 E49.51328
G1 X59.011 Y136.910 E49.54379
G1 X58.841 Y136.954 E49.55255
G1 X58.301 Y137.236 E49.58294
G1 X58.145 Y137.320 E49.59178
G1 X57.691 Y137.722 E49.62204
G0 F9000 X59.606 Y136.766
G0 X61.849 Y137.319
G0 X72.709 Y139.435
G1 F1800 X72.641 Y140.000 E49.65043
G1 X72.709 Y140.564 E49.67877
G1 X72.911 Y141.096 E49.70716
G1 X73.234 Y141.564 E49.73553
G1 X73.660 Y141.940 E49.76388
G1 X74.162 Y142.205 E49.79220
G1 X74.715 Y142.341 E49.82061
G1 X75.144 Y142.342 E49.84201
G1 X75.288 Y142.340 E49.84920
G1 X75.837 Y142.205 E49.87740
G1 X76.339 Y141.940 E49.90572
G1 X76.765 Y141.564 E49.93407
G1 X77.088 Y141.096 E49.96244
G1 X77.290 Y140.564 E49.99083
G1 X77.360 Y140.000 E50.01918
G1 X77.290 Y139.435 E50.04759
G1 X77.088 Y138.903 E50.07598
G1 X76.765 Y138.435 E50.10435
G1 X76.339 Y138.059 E50.13270
G1 X75.837 Y137.794 E50.16102
G1 X75.284 Y137.658 E50.18943
G1 X74.855 Y137.657 E50.21083
G1 X74.711 Y137.659 E50.21802
G1 X74.162 Y137.794 E50.24622
G1 X73.660 Y138.059 E50.27454
G1 X73.234 Y138.435 E50.30289
G1 X72.911 Y138.903 E50.33126
G1 X72.709 Y139.435 E50.35965
G0 F9000 X72.912 Y141.094
G0 X74.164 Y142.204
G0 X75.835 Y142.204
G0 X83.987 Y147.987
G1 F1800 X83.988 Y152.012 E50.56046
G1 X95.513 Y152.013 E51.13544
G1 X95.512 Y147.988 E51.33625
G1 X83.987 Y147.987 E51.91123
G0 F9000 X76.197 Y158.263
G1 F1800 X75.747 Y158.028 E51.93656
G1 X75.254 Y157.906 E51.96190
G1 X74.876 Y157.905 E51.98076
G1 X74.741 Y157.907 E51.98749
G1 X74.252 Y158.028 E52.01263
G1 X73.802 Y158.263 E52.03795
G1 X73.421 Y158.601 E52.06336
G1 X73.131 Y159.020 E52.08879
G1 X72.952 Y159.496 E52.11416
G1 X72.891 Y160.000 E52.13949
G1 X72.952 Y160.503 E52.16476
G1 X73.131 Y160.979 E52.19014
G1 X73.421 Y161.398 E52.21556
G1 X73.802 Y161.736 E52.24097
G1 X74.252 Y161.971 E52.26630
G1 X74.745 Y162.093 E52.29163
G1 X75.123 Y162.094 E52.31049
G1 X75.258 Y162.092 E52.31723
G1 X75.747 Y161.971 E52.34236
G1 X76.197 Y161.736 E52.36769
G1 X76.578 Y161.398 E52.39310
G1 X76.868 Y160.979 E52.41852
G1 X77.047 Y160.504 E52.44385
G1 X77.110 Y160.000 E52.46919
G1 X77.047 Y159.495 E52.49458
G1 X76.868 Y159.020 E52.51990
G1 X76.578 Y158.601 E52.54532
G1 X76.197 Y158.263 E52.57073
G0 F9000 X74.742 Y157.909
G0 X62.610 Y160.000
G1 F1800 X62.533 Y159.375 E52.60215
G1 X62.310 Y158.787 E52.63352
G1 X61.952 Y158.269 E52.66494
G1 X61.481 Y157.853 E52.69629
G1 X60.925 Y157.560 E52.72764
G1 X60.315 Y157.409 E52.75900
G1 X59.834 Y157.408 E52.78299
G1 X59.681 Y157.410 E52.79063
G1 X59.074 Y157.560 E52.82182
G1 X58.518 Y157.853 E52.85318
G1 X58.047 Y158.269 E52.88453
G1 X57.689 Y158.787 E52.91594
G1 X57.466 Y159.376 E52.94736
G1 X57.391 Y160.000 E52.97872
G1 X57.466 Y160.623 E53.01002
G1 X57.689 Y161.212 E53.04145
G1 X58.047 Y161.730 E53.07286
G1 X58.518 Y162.146 E53.10421
G1 X59.074 Y162.439 E53.13557
G1 X59.684 Y162.590 E53.16692
G1 X60.165 Y162.591 E53.19092
G1 X60.318 Y162.589 E53.19855
G1 X60.925 Y162.439 E53.22974
G1 X61.481 Y162.146 E53.26110
G1 X61.952 Y161.730 E53.29245
G1 X62.310 Y161.212 E53.32386
G1 X62.533 Y160.624 E53.35524
G1 X62.610 Y160.000 E53.38661
G0 F9000 X75.257 Y162.090
G0 X108.487 Y166.013
G1 F1800 X140.513 Y166.013 E54.98439
G1 X140.513 Y133.987 E56.58217
G1 X108.487 Y133.987 E58.17996
G1 X108.487 Y166.013 E59.77774
G0 F9000 X140.454 Y165.954
G0 X152.987 Y138.013
G1 F1800 X246.013 Y138.013 E64.41883
G1 X246.013 Y133.987 E64.61968
G1 X152.987 Y133.987 E69.26077
G1 X152.987 Y138.013 E69.46163
G0 F9000 X152.987 Y147.487
G1 F1800 X152.987 Y166.013 E70.38589
G1 X246.013 Y166.013 E75.02698
G1 X246.013 Y147.487 E75.95125
G1 X152.987 Y147.487 E80.59233
G0 F9000 X153.387 Y147.887
;TYPE:WALL-OUTER
G1 F1800 X153.387 Y165.613 E81.47669
G1 X245.613 Y165.613 E86.07786
G1 X245.613 Y147.887 E86.96221
G1 X153.387 Y147.887 E91.56339
G0 F9000 X153.387 Y147.587
G0 X153.087 Y137.613
G0 X153.387 Y137.613
G1 F1800 X245.613 Y137.613 E96.16456
G1 X245.613 Y134.387 E96.32551
G1 X153.387 Y134.387 E100.92668
G1 X153.387 Y137.613 E101.08763
G0 F9000 X153.087 Y137.613
G0 X140.113 Y134.087
G0 X140.113 Y134.387
G1 F1800 X108.887 Y134.387 E102.64550
G1 X108.887 Y165.613 E104.20337
G1 X140.113 Y165.613 E105.76124
G1 X140.113 Y134.387 E107.31911
G0 F9000 X140.113 Y134.087
G0 X108.546 Y134.046
G0 X95.113 Y148.088
G0 X95.112 Y148.388
G1 F1800 X84.387 Y148.387 E107.85419
G1 X84.388 Y151.612 E108.01508
G1 X95.113 Y151.613 E108.55015
G1 X95.112 Y148.388 E108.71105
G0 F9000 X95.113 Y148.088
G0 X76.977 Y141.079
G0 X76.731 Y140.909
G1 F1800 X76.899 Y140.467 E108.73464
G1 X76.957 Y140.000 E108.75812
G1 X76.899 Y139.532 E108.78165
G1 X76.731 Y139.090 E108.80524
G1 X76.464 Y138.702 E108.82873
G1 X76.110 Y138.390 E108.85228
G1 X75.694 Y138.171 E108.87573
G1 X75.235 Y138.058 E108.89931
G1 X74.857 Y138.057 E108.91817
G1 X74.762 Y138.058 E108.92291
G1 X74.305 Y138.171 E108.94640
G1 X73.889 Y138.390 E108.96985
G1 X73.535 Y138.702 E108.99339
G1 X73.268 Y139.090 E109.01689
G1 X73.100 Y139.532 E109.04048
G1 X73.044 Y140.000 E109.06400
G1 X73.100 Y140.467 E109.08746
G1 X73.268 Y140.909 E109.11105
G1 X73.535 Y141.297 E109.13455
G1 X73.889 Y141.609 E109.15809
G1 X74.305 Y141.828 E109.18155
G1 X74.764 Y141.941 E109.20513
G1 X75.142 Y141.942 E109.22399
G1 X75.237 Y141.941 E109.22873
G1 X75.694 Y141.828 E109.25222
G1 X76.110 Y141.609 E109.27567
G1 X76.464 Y141.297 E109.29921
G1 X76.731 Y140.909 E109.32271
G0 F9000 X76.977 Y141.079
G0 X75.835 Y142.204
G0 X74.164 Y142.204
G0 X72.912 Y141.094
G0 X63.154 Y140.036
G0 X62.856 Y140.000
G1 F1800 X62.789 Y139.441 E109.35080
G1 X62.772 Y139.315 E109.35714
G1 X62.574 Y138.791 E109.38509
G1 X62.528 Y138.672 E109.39145
G1 X62.137 Y138.106 E109.42577
G1 X61.718 Y137.733 E109.45376
G1 X61.622 Y137.649 E109.46013
G1 X61.125 Y137.387 E109.48815
G1 X61.012 Y137.329 E109.49449
G1 X60.467 Y137.194 E109.52250
G1 X60.343 Y137.164 E109.52887
G1 X59.782 Y137.163 E109.55686
G1 X59.655 Y137.164 E109.56319
G1 X59.109 Y137.298 E109.59124
G1 X58.986 Y137.330 E109.59758
G1 X58.488 Y137.589 E109.62559
G1 X58.376 Y137.650 E109.63195
G1 X57.957 Y138.021 E109.65987
G1 X57.862 Y138.106 E109.66623
G1 X57.542 Y138.568 E109.69427
G1 X57.470 Y138.673 E109.70062
G1 X57.271 Y139.198 E109.72863
G1 X57.226 Y139.317 E109.73498
G1 X57.157 Y139.875 E109.76303
G1 X57.144 Y140.001 E109.76935
G1 X57.210 Y140.558 E109.79733
G1 X57.227 Y140.684 E109.80368
G1 X57.425 Y141.208 E109.83162
G1 X57.471 Y141.327 E109.83799
G1 X57.862 Y141.893 E109.87231
G1 X58.281 Y142.266 E109.90029
G1 X58.377 Y142.350 E109.90666
G1 X58.874 Y142.612 E109.93469
G1 X58.987 Y142.670 E109.94103
G1 X59.532 Y142.805 E109.96904
G1 X59.656 Y142.835 E109.97540
G1 X60.217 Y142.836 E110.00339
G1 X60.344 Y142.835 E110.00973
G1 X60.890 Y142.701 E110.03777
G1 X61.013 Y142.669 E110.04412
G1 X61.511 Y142.410 E110.07212
G1 X61.623 Y142.349 E110.07848
G1 X62.042 Y141.978 E110.10640
G1 X62.137 Y141.893 E110.11276
G1 X62.457 Y141.431 E110.14080
G1 X62.529 Y141.326 E110.14715
G1 X62.728 Y140.801 E110.17516
G1 X62.773 Y140.682 E110.18151
G1 X62.856 Y140.000 E110.21579
G0 F9000 X63.154 Y140.036
G0 X60.337 Y157.518
G0 X60.266 Y157.809
G1 F1800 X59.836 Y157.808 E110.23724
G1 X59.732 Y157.809 E110.24243
G1 X59.217 Y157.937 E110.26890
G1 X58.747 Y158.184 E110.29539
G1 X58.348 Y158.536 E110.32194
G1 X58.046 Y158.974 E110.34848
G1 X57.857 Y159.472 E110.37506
G1 X57.794 Y160.000 E110.40159
G1 X57.857 Y160.527 E110.42806
G1 X58.046 Y161.025 E110.45464
G1 X58.348 Y161.463 E110.48118
G1 X58.747 Y161.815 E110.50773
G1 X59.217 Y162.062 E110.53422
G1 X59.733 Y162.190 E110.56074
G1 X60.163 Y162.191 E110.58219
G1 X60.267 Y162.190 E110.58738
G1 X60.782 Y162.062 E110.61386
G1 X61.252 Y161.815 E110.64035
G1 X61.651 Y161.463 E110.66689
G1 X61.953 Y161.025 E110.69343
G1 X62.142 Y160.527 E110.72001
G1 X62.207 Y160.000 E110.74650
G1 X62.142 Y159.472 E110.77304
G1 X61.953 Y158.974 E110.79962
G1 X61.651 Y158.536 E110.82616
G1 X61.252 Y158.184 E110.85270
G1 X60.782 Y157.937 E110.87919
G1 X60.266 Y157.809 E110.90572
G0 F9000 X60.337 Y157.518
G0 X73.047 Y159.554
G0 X73.343 Y159.592
G1 F1800 X73.294 Y160.000 E110.92622
G1 X73.343 Y160.407 E110.94667
G1 X73.488 Y160.792 E110.96719
G1 X73.722 Y161.131 E110.98775
G1 X74.031 Y161.404 E111.00832
G1 X74.395 Y161.594 E111.02880
G1 X74.794 Y161.693 E111.04931
G1 X75.120 Y161.694 E111.06558
G1 X75.206 Y161.693 E111.06987
G1 X75.604 Y161.594 E111.09033
G1 X75.968 Y161.404 E111.11081
G1 X76.277 Y161.131 E111.13138
G1 X76.511 Y160.792 E111.15193
G1 X76.656 Y160.407 E111.17246
G1 X76.707 Y160.000 E111.19292
G1 X76.656 Y159.592 E111.21344
G1 X76.511 Y159.207 E111.23396
G1 X76.277 Y158.868 E111.25451
G1 X75.968 Y158.595 E111.27508
G1 X75.604 Y158.405 E111.29557
G1 X75.205 Y158.306 E111.31608
G1 X74.879 Y158.305 E111.33234
G1 X74.793 Y158.306 E111.33663
G1 X74.395 Y158.405 E111.35709
G1 X74.031 Y158.595 E111.37758
G1 X73.722 Y158.868 E111.39815
G1 X73.488 Y159.207 E111.41870
G1 X73.343 Y159.592 E111.43923
G0 F9000 X73.047 Y159.554
G0 X50.823 Y169.088
G0 X50.613 Y169.387
G1 F1800 X50.613 Y130.613 E113.37367
G1 X249.388 Y130.612 E123.29059
G1 X249.388 Y169.388 E125.22514
G1 X50.613 Y169.387 E135.14206
G0 F9000 X51.466 Y168.846
;TYPE:SKIN
G1 F1800 X51.152 Y168.532 E135.16422
G0 F9000 X51.152 Y167.966
G1 F1800 X52.032 Y168.846 E135.22630
G0 F9000 X52.598 Y168.846
G1 F1800 X51.152 Y167.401 E135.32829
G0 F9000 X51.152 Y166.835
G1 F1800 X53.163 Y168.846 E135.47018
G0 F9000 X53.729 Y168.846
G1 F1800 X51.152 Y166.269 E135.65200
G0 F9000 X51.152 Y165.704
G1 F1800 X54.295 Y168.846 E135.87372
G0 F9000 X54.860 Y168.846
G1 F1800 X51.152 Y165.138 E136.13534
G0 F9000 X51.152 Y164.572
G1 F1800 X55.426 Y168.846 E136.43689
G0 F9000 X55.992 Y168.846
G1 F1800 X51.152 Y164.007 E136.77835
G0 F9000 X51.152 Y163.441
G1 F1800 X56.557 Y168.846 E137.15970
G0 F9000 X57.123 Y168.846
G1 F1800 X51.152 Y162.875 E137.58099
G0 F9000 X51.152 Y162.309
G1 F1800 X57.689 Y168.846 E138.04221
G0 F9000 X58.254 Y168.846
G1 F1800 X51.152 Y161.744 E138.54329
G0 F9000 X51.152 Y161.178
G1 F1800 X58.820 Y168.846 E139.08431
G0 F9000 X59.386 Y168.846
G1 F1800 X51.152 Y160.612 E139.66526
G0 F9000 X51.152 Y160.047
G1 F1800 X59.952 Y168.846 E140.28611
G0 F9000 X65.043 Y168.846
G1 F1800 X58.481 Y162.284 E140.74910
G0 F9000 X57.767 Y161.571
G1 F1800 X51.152 Y154.956 E141.21582
G0 F9000 X51.152 Y155.521
G1 F1800 X64.477 Y168.846 E142.15597
G0 F9000 X63.911 Y168.846
G1 F1800 X51.152 Y156.087 E143.05619
G0 F9000 X51.152 Y156.653
G1 F1800 X63.346 Y168.846 E143.91651
G0 F9000 X62.780 Y168.846
G1 F1800 X51.152 Y157.218 E144.73693
G0 F9000 X51.152 Y157.784
G1 F1800 X62.214 Y168.846 E145.51741
G0 F9000 X61.649 Y168.846
G1 F1800 X51.152 Y158.350 E146.25799
G0 F9000 X51.152 Y158.915
G1 F1800 X61.083 Y168.846 E146.95868
G0 F9000 X60.517 Y168.846
G1 F1800 X51.152 Y159.481 E147.61943
G0 F9000 X51.152 Y154.390
G1 F1800 X57.316 Y160.554 E148.05433
G0 F9000 X58.519 Y162.145
G0 X59.435 Y162.672
G1 F1800 X65.608 Y168.846 E148.48991
G0 F9000 X66.174 Y168.846
G1 F1800 X60.057 Y162.729 E148.92150
G0 F9000 X60.565 Y162.672
G1 F1800 X66.740 Y168.846 E149.35714
G0 F9000 X67.305 Y168.846
G1 F1800 X61.011 Y162.551 E149.80125
G0 F9000 X61.381 Y162.356
G1 F1800 X67.871 Y168.846 E150.25916
G0 F9000 X68.437 Y168.846
G1 F1800 X61.715 Y162.124 E150.73343
G0 F9000 X62.016 Y161.859
G1 F1800 X69.003 Y168.846 E151.22640
G0 F9000 X69.568 Y168.846
G1 F1800 X62.256 Y161.534 E151.74230
G0 F9000 X62.470 Y161.182
G1 F1800 X70.134 Y168.846 E152.28304
G0 F9000 X70.700 Y168.846
G1 F1800 X62.626 Y160.772 E152.85270
G0 F9000 X62.714 Y160.294
G1 F1800 X71.265 Y168.846 E153.45606
G0 F9000 X71.831 Y168.846
G1 F1800 X62.718 Y159.733 E154.09903
G0 F9000 X62.534 Y158.983
G1 F1800 X72.397 Y168.846 E154.79492
G0 F9000 X72.962 Y168.846
G1 F1800 X51.152 Y147.036 E156.33373
G0 F9000 X51.152 Y147.602
G1 F1800 X60.982 Y157.431 E157.02725
G0 F9000 X60.253 Y157.268
G1 F1800 X51.152 Y148.167 E157.66938
G0 F9000 X51.152 Y148.733
G1 F1800 X59.687 Y157.268 E158.27157
G0 F9000 X59.229 Y157.375
G1 F1800 X51.152 Y149.299 E158.84141
G0 F9000 X51.152 Y149.864
G1 F1800 X58.821 Y157.533 E159.38250
G0 F9000 X58.450 Y157.728
G1 F1800 X51.152 Y150.430 E159.89741
G0 F9000 X51.152 Y150.996
G1 F1800 X58.148 Y157.991 E160.39098
G0 F9000 X57.869 Y158.278
G1 F1800 X51.152 Y151.561 E160.86490
G0 F9000 X51.152 Y152.127
G1 F1800 X57.638 Y158.613 E161.32252
G0 F9000 X57.458 Y158.999
G1 F1800 X51.152 Y152.693 E161.76745
G0 F9000 X51.152 Y153.259
G1 F1800 X57.319 Y159.425 E162.20253
G0 F9000 X57.259 Y159.931
G1 F1800 X51.152 Y153.824 E162.63341
G0 F9000 X51.152 Y146.470
G1 F1800 X73.528 Y168.846 E164.21216
G0 F9000 X74.094 Y168.846
G1 F1800 X51.152 Y145.905 E165.83080
G0 F9000 X51.152 Y145.339
G1 F1800 X74.659 Y168.846 E167.48935
G0 F9000 X75.225 Y168.846
G1 F1800 X51.152 Y144.773 E169.18783
G0 F9000 X51.152 Y144.208
G1 F1800 X75.791 Y168.846 E170.92621
G0 F9000 X76.356 Y168.846
G1 F1800 X51.152 Y143.642 E172.70449
G0 F9000 X51.152 Y143.076
G1 F1800 X76.922 Y168.846 E174.52270
G0 F9000 X77.488 Y168.846
G1 F1800 X51.152 Y142.511 E176.38081
G0 F9000 X51.152 Y141.945
G1 F1800 X78.053 Y168.846 E178.27882
G0 F9000 X78.619 Y168.846
G1 F1800 X51.152 Y141.379 E180.21677
G0 F9000 X51.152 Y140.813
G1 F1800 X79.185 Y168.846 E182.19465
G0 F9000 X79.751 Y168.846
G1 F1800 X51.152 Y140.248 E184.21243
G0 F9000 X51.152 Y135.722
G1 F1800 X56.979 Y141.549 E184.62355
G0 F9000 X56.685 Y140.690
G1 F1800 X51.152 Y135.157 E185.01393
G0 F9000 X51.152 Y134.591
G1 F1800 X56.606 Y140.045 E185.39874
